packages/tokens/icons/ot/size24Px.svg

<svg viewBox="0 0 24 24" fill="none" xmlns="http://www.w3.org/2000/svg" width="1em" height="1em"><rect x="2.5" y="2.5" width="19" height="19" rx="5" stroke="currentColor"/><path d="M9.64931 16.132C9.12864 16.132 8.63364 16.044 8.16431 15.868C7.69498 15.6847 7.28064 15.4243 6.92131 15.087C6.56931 14.7497 6.28698 14.339 6.07431 13.855C5.86898 13.371 5.76631 12.8247 5.76631 12.216C5.76631 11.6073 5.86898 11.0647 6.07431 10.588C6.28698 10.104 6.56931 9.69333 6.92131 9.356C7.28064 9.01133 7.69498 8.751 8.16431 8.575C8.63364 8.39167 9.12864 8.3 9.64931 8.3C10.17 8.3 10.665 8.39167 11.1343 8.575C11.6036 8.751 12.0143 9.01133 12.3663 9.356C12.7256 9.69333 13.008 10.104 13.2133 10.588C13.426 11.0647 13.5323 11.6073 13.5323 12.216C13.5323 12.8247 13.426 13.371 13.2133 13.855C13.008 14.339 12.7293 14.7497 12.3773 15.087C12.0253 15.4243 11.6146 15.6847 11.1453 15.868C10.676 16.044 10.1773 16.132 9.64931 16.132ZM9.64931 15.384C10.06 15.384 10.4486 15.3107 10.8153 15.164C11.1893 15.0173 11.512 14.8083 11.7833 14.537C12.062 14.2657 12.282 13.932 12.4433 13.536C12.6046 13.14 12.6853 12.6963 12.6853 12.205C12.6853 11.7063 12.6046 11.2627 12.4433 10.874C12.282 10.478 12.062 10.1443 11.7833 9.873C11.512 9.60167 11.1893 9.39633 10.8153 9.257C10.4486 9.11033 10.06 9.037 9.64931 9.037C9.23864 9.037 8.84998 9.11033 8.48331 9.257C8.11664 9.39633 7.79398 9.60167 7.51531 9.873C7.23664 10.1443 7.01664 10.478 6.85531 10.874C6.69398 11.2627 6.61331 11.7063 6.61331 12.205C6.61331 12.6963 6.69398 13.14 6.85531 13.536C7.02398 13.932 7.24398 14.2657 7.51531 14.537C7.79398 14.8083 8.11664 15.0173 8.48331 15.164C8.85731 15.3107 9.24598 15.384 9.64931 15.384ZM15.5586 9.114H13.3476V8.41H18.5836V9.114H16.3836V16H15.5586V9.114Z" fill="currentColor"/></svg>

<svg xmlns="http://www.w3.org/2000/svg" fill="none" viewBox="0 0 24 24" width="1em" height="1em"><rect width="19" height="19" x="2.5" y="2.5" stroke="currentColor" rx="5"/><path fill="currentColor" d="M9.65 16.132a4.201 4.201 0 0 1-1.486-.264 3.838 3.838 0 0 1-1.243-.781 3.8 3.8 0 0 1-.847-1.232c-.205-.484-.308-1.03-.308-1.639s.103-1.151.308-1.628a3.8 3.8 0 0 1 .847-1.232 3.61 3.61 0 0 1 1.243-.781c.47-.183.965-.275 1.485-.275a4.05 4.05 0 0 1 1.485.275c.47.176.88.436 1.232.781.36.337.642.748.847 1.232.213.477.32 1.02.32 1.628 0 .609-.107 1.155-.32 1.639a3.663 3.663 0 0 1-.836 1.232 3.713 3.713 0 0 1-1.232.781 4.224 4.224 0 0 1-1.496.264Zm0-.748c.41 0 .799-.073 1.165-.22a2.8 2.8 0 0 0 .968-.627c.279-.271.499-.605.66-1.001a3.5 3.5 0 0 0 .242-1.331c0-.499-.08-.942-.242-1.331a2.905 2.905 0 0 0-.66-1.001 2.667 2.667 0 0 0-.968-.616 3.11 3.11 0 0 0-1.166-.22c-.41 0-.799.073-1.166.22a2.796 2.796 0 0 0-1.628 1.617 3.446 3.446 0 0 0-.242 1.331c0 .491.081.935.242 1.331.169.396.389.73.66 1.001.279.271.602.48.968.627.374.147.763.22 1.166.22Zm5.909-6.27h-2.211V8.41h5.236v.704h-2.2V16h-.825V9.114Z"/></svg>
